X:361
L:1/4
Q:1/4=130
M:3/4
K:F
 (A/>B/) | (c f) e | B2 (G/>A/) | (B d) c | A2 (.A/>.A/) | (A G) A | B2 (B/>c/) | (d E) E | F2 :: 
 F |{e} (d/>^c/) d F |{d} (c/>=B/) c F |{c} (B/>A/) B d | c2 F |{e} (d/>^c/) d F | 
{d} (c/>=B/) c F |{c} (B/>A/) B E | F2 :| (E/>F/) |[K:C] (G/>^F/) G G | (A/>^G/) A A | 
 (B/>^A/) B B | c2 (c/>d/) | (e/>^d/) e G | (d/>^c/) d F | (B/>^A/) B B |"^D.C." c2 |]

